X:1
T:Junggesellenfreuden
T:Junggesellenfreuden
T:Adam Krieger
C:Adam Krieger
%%score 1 { ( 2 4 ) | 3 }
L:1/8
M:6/4
K:Ab
V:1 treble nm="Voice"
V:2 treble nm="Piano"
V:4 treble 
V:3 bass 
V:1
 z2 | z2 z2 z8 | z4 z4 z2!f! C2 | F2 G2 A2 G2 F2 =E2 | F2 G2 A2 G4 C2 | F2 G2 A2 G2 F2 =E2 | %6
w: ||1.Ich|will es nicht ach- ten, ich|will es nicht tun. Ihr|an- dern be- denkt euch und|
w: ||2.Al-|lei- ne mit Wei- ne macht|schlech- tes Ge- schrei. Drum|nehm' ich noch man- ches Schluck-|
w: ||3.Und|wenn wir fein satt sind, so|gehn wir nach haus und|den- ken: wo ha- ben wir|
 F2 G2 A2 !breath!G4!mf! C2 |!<(! A2 A2 B2!>(! c4 B2!<)!!>)! | A2 B2 A2 G4!mf! C2 | %9
w: fol- get mir nun! Denn|schlaf ich al- lein, so|kann ich gut ruhn und|
w: bru- der da- bei. Da|trin- ken wir aus ohn'|al- ler- lei Scheu und|
w: mor- gen den Schmaus? So|stärkt sich der Leib, der|näh- ret sich draus, so|
!<(! A2 A2 B2!>(! c4!p! B2!<)!!>)! | (Ac)(BA)(GF) F4 z2 | z12 | z12 | z12 | z12 | z12 | z12 | z12 | %18
w: trink ein Glas Wein und|ess * ein'n * Ka- * pun||||||||
w: mach- en den Schmaus bald|wie- * der * aufs * neu.||||||||
w: schlägt uns kein Weib, so|schla- * fen * wir * aus.||||||||
 z12 |] %19
w: |
w: |
w: |
V:2
!p! C2 | [A,F]2 [CG]2 [FA]2 [GB]2 [Ac]2 [Bd]2 | [Ac]2 [ca]2!f! [B=eg]2 [Acf]4 C2 | %3
 [A,F]2 [CG]2 [FA]2 [CG]2 [A,F]2 [G,=E]2 | [A,F]2 [CG]2 [FA]2 [CG]4 [B,C]2 | %5
 [A,F]2 [CG]2 [FA]2 [CG]2 [A,F]2 [G,=E]2 | [A,F]2 [CG]2 [FA]2 [CG]4 C2 | %7
 [CFA]2 [CFA]2 [DGB]2 [CEAc]4 [EGB]2 | [CFA]2 [DGB]2 [=DFA]2 [=EG]4 C2 | %9
 [CFA]2 [CFA]2 [DGB]2 [CEAc]4 [EGB]2 | [CFA]2 [DGB]2 [B,=EG]2 [A,CF]4 C2 | %11
 [A,CF]2 [CFA]2 [FAc]2 [CG]2 [EGc]2 [Gce]2 | f2 a2 f2 c'4 c'2 | %13
 [fa]2 [cg]2 [cf]2 [ac']2 [gb]2 [fa]2 | [eg]2 [fa]2 [gb]2 [gb]2 [fa]2 [eg]2 | f2 a2 f2 b4 a2- | %16
 ag f2 =e2 c2 B=A B2 | c2 =d2 [c=e]2 [cf]2 [Bg]2 [fa]2 | f2 f2 =e2 f4 z2 |] %19
V:3
 z2 | z12 | z2 z2 [C,G,C]2 [F,A,C]4 C,2 | [F,,C,]6 [C,,C,]6 | [F,,C,]6 [C,,C,]6 | %5
 [F,,C,]6 [C,,C,]6 | [F,,C,]6 [C,,C,]4 C,2- | [F,,C,]4 [E,,E,]2 [A,,,A,,]4 [E,,E,]2 | %8
 [F,,F,]2 [B,,,B,,]2 [=B,,,=B,,]2 [C,,C,]4 C,2- | [F,,C,]4 [E,,E,]2 [A,,,A,,]4 [E,,E,]2 | %10
 [F,,F,]2 [B,,,B,,]2 [C,,C,]2 [F,,,F,,]4!f! C,2- | [F,,C,]6 [E,,E,]6 | [D,,D,]6 [C,,C,]4 z2 | %13
 [F,,F,]6 [B,,,B,,]6 | [E,,E,]6 [A,,,A,,]6 | [D,,D,]6 [G,,,G,,]4 [A,,,A,,]2 | %16
 [B,,,B,,]2 [C,,C,]4 [D,,D,]6 | [C,,C,]4 [B,,,B,,]2 [A,,,A,,]2 [G,,,G,,]2 [F,,,F,,]2 | %18
 [B,,,B,,]2 [C,,C,]4 [F,,,F,,]4 z2 |] %19
V:4
 x2 | x12 | x12 | x12 | x12 | x12 | x12 | x12 | x12 | x12 | x12 | x12 | %12
 [Ac]2 [cf]2 B2 [c=e]4 [=df][fg] | c2 B2 A2 [dd']6 | d6 [cc']6 | %15
 [Ac]2 [cg]2 [Ac]2 [df]2 [c=e]2 [cf]2 | [Bd]2 [Gc]4 [Ff]6 | =E2 F2 G2 A2 =d=e c2 | %18
 [Gd]2 [Gc]4 [=Ac]4 z2 |] %19

